X: 36323
T: Sean At The Wheel
R: reel
M: 4/4
K: Ddorian
|:DA,A,F EDCE|DEFG Ad^cd|fddf ecAc|d2 cA GEFE|
DA,A,F EDCE|DEFG Ad^cd|f2 df edcA|GcBc ED D2:|
|:dAcA dAcA|defa gefe|dAcA daag|fdef eAce|
dAcA dAcA|defd efge|fddf edcA|GcBc ED D2:|

